dist/img/svg/arrow-right.svg

<svg width="10" height="18" viewBox="0 0 10 18" fill="none" xmlns="http://www.w3.org/2000/svg">
<path d="M0.637523 18C0.467517 18 0.315726 17.9413 0.182149 17.824C0.0607165 17.7067 0 17.566 0 17.4018C0 17.2375 0.0607165 17.0968 0.182149 16.9795L8.50638 8.93842L0.309654 1.03812C0.236794 0.956012 0.182149 0.86217 0.145719 0.756598C0.121433 0.651026 0.121433 0.55132 0.145719 0.457478C0.182149 0.351906 0.236794 0.258065 0.309654 0.175953C0.431087 0.058651 0.576806 0 0.746812 0C0.928962 0 1.08075 0.058651 1.20219 0.175953L9.81785 8.51613C9.87857 8.57478 9.92107 8.64516 9.94535 8.72727C9.98178 8.79765 10 8.8739 10 8.95601C10 9.02639 9.98178 9.09677 9.94535 9.16716C9.92107 9.23754 9.87857 9.30205 9.81785 9.3607L1.07468 17.824C1.01396 17.8827 0.941105 17.9238 0.856102 17.9472C0.783242 17.9824 0.710382 18 0.637523 18Z" fill="#C78E66"/>
</svg>

<svg width="10" height="18" viewBox="0 0 10 18" fill="none" xmlns="http://www.w3.org/2000/svg"><path d="M.638 18a.671.671 0 0 1-.456-.176.566.566 0 0 1-.182-.422c0-.165.06-.305.182-.422l8.324-8.042-8.196-7.9A.825.825 0 0 1 .146.757a.623.623 0 0 1 0-.3A.825.825 0 0 1 .31.176.607.607 0 0 1 .747 0a.63.63 0 0 1 .455.176l8.616 8.34c.06.059.103.13.127.211a.49.49 0 0 1 .055.229c0 .07-.018.14-.055.211a.492.492 0 0 1-.127.194l-8.743 8.463a.5.5 0 0 1-.219.123.499.499 0 0 1-.218.053z" fill="#C78E66"/></svg>
